img/service-size-icon__01.svg

<svg width="21" height="25" viewBox="0 0 21 25" fill="none" xmlns="http://www.w3.org/2000/svg">
<path d="M20.0679 21.5549C19.6738 19.4194 19.0489 17.4792 18.2108 15.7883C17.5359 14.4266 16.7217 13.2221 15.7909 12.2083C14.7596 11.0849 13.8138 10.4446 13.2532 10.1236C15.2351 7.02137 15.2932 4.21034 15.2932 4.18144C15.2932 3.50121 14.9525 2.89018 14.4142 2.47265V0.48828C14.4142 0.218652 14.1955 0 13.9259 0C13.6562 0 13.4376 0.218652 13.4376 0.48828V1.99736C13.2066 1.9375 12.9626 1.90478 12.71 1.90478C11.7756 1.90478 10.947 2.34834 10.4931 3.01401C10.0393 2.34829 9.21065 1.90478 8.27628 1.90478C8.02272 1.90478 7.7778 1.93769 7.54601 1.99799V0.48828C7.54601 0.218652 7.32741 0 7.05773 0C6.78805 0 6.56945 0.218652 6.56945 0.48828V2.47465C6.03263 2.89213 5.69303 3.50234 5.69303 4.18144C5.69303 4.21034 5.75109 7.02435 7.73605 10.1285C7.17448 10.4511 6.23312 11.0906 5.20705 12.2083C4.27619 13.2222 3.46208 14.4267 2.78718 15.7883C1.949 17.4792 1.3242 19.4193 0.930007 21.5549C0.805105 22.2316 1.18269 22.8955 1.82781 23.1335L3.50046 23.7509C3.65666 23.8085 3.81355 23.8637 3.97082 23.9174C3.97595 23.9193 3.98122 23.9209 3.98645 23.9226C5.40812 24.4063 6.87135 24.7271 8.34825 24.8848C8.37169 24.889 8.39567 24.8913 8.42003 24.8919C9.11114 24.9633 9.80499 25 10.4989 25C12.8699 25 15.2409 24.5836 17.4974 23.7509L19.1701 23.1335C19.8153 22.8955 20.1928 22.2316 20.0679 21.5549ZM6.66969 4.18149C6.66969 3.76659 6.91144 3.39667 7.28664 3.15849C7.30363 3.14946 7.31998 3.1394 7.33571 3.12846C7.60031 2.97329 7.92526 2.88139 8.27633 2.88139C9.12325 2.88139 9.8276 3.41684 9.87984 4.10058C9.90431 4.41972 10.1737 4.66972 10.4931 4.66972C10.8126 4.66972 11.082 4.41972 11.1065 4.10043C11.1587 3.41684 11.8631 2.88139 12.71 2.88139C13.056 2.88139 13.3766 2.97065 13.6391 3.12177C13.6608 3.13759 13.6839 3.15165 13.7081 3.16376C14.0785 3.40204 14.3167 3.76928 14.3167 4.18071C14.3164 4.20766 14.2058 6.94173 12.2846 9.82054C12.2605 9.85662 12.2364 9.89266 12.2117 9.92879C11.8378 10.1097 11.4421 10.2282 11.0397 10.2844C11.1421 10.1497 11.2483 9.99422 11.3482 9.82054C11.4832 9.58602 11.6065 9.31829 11.693 9.02235C11.7686 8.76346 11.62 8.49237 11.3612 8.41673C11.1023 8.34115 10.8312 8.48963 10.7556 8.74852C10.6232 9.20194 10.3653 9.5761 10.1606 9.82049C9.9982 10.0145 9.86934 10.1268 9.86358 10.1317C9.82159 10.1673 9.78756 10.2087 9.76075 10.2535C9.42252 10.1897 9.09068 10.0817 8.77452 9.92869C8.74991 9.89261 8.72579 9.85652 8.70172 9.82049C6.78048 6.94183 6.66994 4.20771 6.66969 4.18149ZM18.832 22.2174L17.1593 22.8347C17.0802 22.8639 17.0007 22.8915 16.9213 22.9196C16.6777 21.8742 15.9715 19.2118 14.6889 17.1527C14.5463 16.9238 14.2452 16.8539 14.0163 16.9964C13.7874 17.139 13.7174 17.4402 13.86 17.6691C15.0885 19.6412 15.7755 22.3032 15.9883 23.2241C13.6885 23.9085 11.2898 24.1528 8.9192 23.9578C8.93888 23.4521 9.04234 22.5465 9.48536 21.6422C9.60401 21.4001 9.50387 21.1076 9.26173 20.9888C9.01964 20.8702 8.72711 20.9703 8.60836 21.2125C8.10978 22.2301 7.97648 23.2402 7.94635 23.8535C6.84591 23.7064 5.75553 23.4635 4.68786 23.1253C4.92975 21.7434 5.8801 17.1222 8.13712 14.5325C8.31427 14.3292 8.29313 14.0208 8.08981 13.8435C7.88654 13.6664 7.57809 13.6876 7.40084 13.8908C5.03727 16.6029 4.04245 21.175 3.75139 22.8025L2.16594 22.2173C1.9679 22.1442 1.85198 21.9402 1.89041 21.7322C2.73674 17.1468 4.52858 14.4073 5.88273 12.9166C7.01422 11.671 8.03668 11.0658 8.44694 10.8534C9.09615 11.1501 9.79449 11.299 10.4931 11.299C11.194 11.299 11.8947 11.1491 12.5458 10.8503C13.4773 11.3302 17.6601 13.8904 19.1075 21.7322C19.1459 21.9402 19.03 22.1442 18.832 22.2174Z" fill="black"/>
<path d="M13.4756 15.5661C13.4692 15.5348 13.4599 15.5041 13.4477 15.4748C13.4355 15.445 13.4203 15.4167 13.4028 15.3903C13.3852 15.3635 13.3647 15.3386 13.3423 15.3161C13.229 15.2024 13.06 15.1505 12.9018 15.1823C12.8705 15.1887 12.8398 15.1984 12.81 15.2107C12.7807 15.2229 12.7524 15.238 12.726 15.2556C12.6991 15.2732 12.6742 15.2937 12.6518 15.3161C12.6293 15.3386 12.6088 15.3635 12.5908 15.3903C12.5732 15.4167 12.558 15.445 12.5458 15.4748C12.5336 15.5041 12.5243 15.5348 12.518 15.5661C12.5117 15.5974 12.5087 15.6296 12.5087 15.6613C12.5087 15.693 12.5117 15.7253 12.518 15.7565C12.5243 15.7877 12.5342 15.8185 12.5464 15.8478C12.5586 15.8776 12.5737 15.9059 12.5908 15.9323C12.6089 15.9591 12.6294 15.984 12.6518 16.0065C12.6743 16.0289 12.6992 16.0494 12.7261 16.0675C12.7524 16.0846 12.7807 16.0997 12.81 16.1119C12.8398 16.1242 12.8706 16.1339 12.9019 16.1398C12.9331 16.1461 12.9654 16.1495 12.9971 16.1495C13.0288 16.1495 13.0611 16.1461 13.0923 16.1398C13.1236 16.1339 13.1543 16.1242 13.1836 16.1119C13.2134 16.0997 13.2417 16.0846 13.268 16.0675C13.2949 16.0494 13.3198 16.0289 13.3423 16.0065C13.3647 15.984 13.3852 15.9591 13.4028 15.9323C13.4203 15.9059 13.4355 15.8776 13.4477 15.8478C13.4599 15.8185 13.4692 15.7877 13.4756 15.7565C13.4819 15.7252 13.4853 15.693 13.4853 15.6613C13.4853 15.6296 13.482 15.5973 13.4756 15.5661Z" fill="black"/>
<path d="M12.1935 7.38268C12.1871 7.35192 12.1779 7.32116 12.1657 7.29137C12.1535 7.26208 12.1383 7.23376 12.1208 7.20739C12.1032 7.18053 12.0827 7.15563 12.0602 7.13317C11.9464 7.0194 11.778 6.96759 11.6193 6.99938C11.5885 7.00573 11.5578 7.015 11.528 7.02721C11.4987 7.03942 11.4704 7.05455 11.444 7.07213C11.4171 7.0902 11.3922 7.11071 11.3697 7.13317C11.3473 7.15563 11.3268 7.18053 11.3087 7.20739C11.2912 7.23376 11.276 7.26208 11.2638 7.29137C11.2516 7.32116 11.2423 7.35192 11.236 7.38268C11.2296 7.41442 11.2267 7.4467 11.2267 7.47839C11.2267 7.51013 11.2297 7.5424 11.236 7.5736C11.2423 7.60486 11.2516 7.63562 11.2638 7.66491C11.276 7.69421 11.2912 7.72302 11.3087 7.74939C11.3268 7.77576 11.3473 7.80115 11.3697 7.82361C11.3922 7.84607 11.4171 7.86658 11.444 7.88416C11.4704 7.90169 11.4987 7.91687 11.528 7.92908C11.5578 7.94129 11.5885 7.95051 11.6193 7.95691C11.651 7.96326 11.6833 7.96663 11.715 7.96663C11.7467 7.96663 11.779 7.96326 11.8102 7.95691C11.8415 7.95051 11.8722 7.94129 11.9015 7.92908C11.9313 7.91687 11.9596 7.90169 11.9859 7.88416C12.0128 7.86658 12.0377 7.84607 12.0602 7.82361C12.0827 7.80115 12.1032 7.7758 12.1208 7.74939C12.1383 7.72302 12.1535 7.69416 12.1657 7.66491C12.1779 7.63567 12.1871 7.6049 12.1935 7.5736C12.1998 7.54235 12.2032 7.51013 12.2032 7.47839C12.2032 7.4467 12.1998 7.41442 12.1935 7.38268Z" fill="black"/>
</svg>

<svg width="21" height="25" fill="none" xmlns="http://www.w3.org/2000/svg"><path d="M20.068 21.555c-.394-2.136-1.02-4.076-1.857-5.767-.675-1.361-1.49-2.566-2.42-3.58-1.031-1.123-1.977-1.763-2.538-2.084 1.982-3.103 2.04-5.914 2.04-5.943 0-.68-.34-1.29-.879-1.708V.488a.488.488 0 00-.976 0v1.51a2.898 2.898 0 00-.728-.093c-.934 0-1.763.443-2.217 1.109-.454-.666-1.282-1.11-2.217-1.11-.253 0-.498.034-.73.094V.488a.488.488 0 00-.977 0v1.987c-.536.417-.876 1.027-.876 1.706 0 .03.058 2.843 2.043 5.948-.562.322-1.503.962-2.529 2.08-.93 1.013-1.745 2.218-2.42 3.58-.838 1.69-1.463 3.63-1.857 5.766-.125.677.253 1.34.898 1.579l1.672.617c.157.057.314.113.47.166l.016.006A20.2 20.2 0 0010.5 25c2.37 0 4.742-.416 6.998-1.25l1.673-.616a1.407 1.407 0 00.898-1.58zM6.67 4.18c0-.414.241-.784.617-1.023a1.863 1.863 0 01.99-.277c.846 0 1.55.536 1.603 1.22a.618.618 0 00.613.569.62.62 0 00.614-.57c.052-.683.756-1.219 1.603-1.219.346 0 .667.09.93.24.02.017.044.03.068.043.37.238.609.605.609 1.017 0 .027-.111 2.76-2.032 5.64l-.073.108c-.374.18-.77.3-1.172.355.102-.134.208-.29.308-.463.135-.235.258-.503.345-.799a.488.488 0 00-.937-.273 3.05 3.05 0 01-.595 1.071 2.929 2.929 0 01-.297.312.486.486 0 00-.103.122 3.939 3.939 0 01-.986-.325 13.494 13.494 0 01-.073-.109C6.78 6.942 6.67 4.208 6.67 4.181zm12.162 18.036l-1.673.618-.238.085c-.243-1.046-.95-3.708-2.232-5.767a.488.488 0 00-.829.516c1.229 1.972 1.915 4.634 2.128 5.555-2.3.684-4.698.929-7.069.734.02-.506.123-1.411.566-2.316a.488.488 0 00-.877-.43c-.498 1.018-.632 2.028-.662 2.642-1.1-.148-2.19-.39-3.258-.729.242-1.382 1.192-6.003 3.45-8.592a.488.488 0 00-.737-.642c-2.364 2.712-3.359 7.284-3.65 8.911l-1.585-.585a.432.432 0 01-.276-.485c.847-4.585 2.639-7.325 3.993-8.815 1.131-1.246 2.154-1.851 2.564-2.064a4.922 4.922 0 004.099-.003c.931.48 5.114 3.04 6.562 10.882a.432.432 0 01-.276.485z" fill="#000"/><path d="M13.476 15.566a.497.497 0 00-.134-.25.493.493 0 00-.69 0 .497.497 0 00-.143.345.484.484 0 00.393.479.484.484 0 00.574-.383.485.485 0 000-.19zm-1.282-8.183a.522.522 0 00-.073-.176.493.493 0 00-.677-.135.5.5 0 00-.208.31.485.485 0 00.208.502.5.5 0 00.271.083.48.48 0 00.27-.083.468.468 0 00.18-.22.495.495 0 00.029-.281z" fill="#000"/></svg>
